X:523
M:C|
L:1/8
K:D
|:B|A>DF>D A>Bd>e|f<d g>f e>d B<d|A>DF>D A>B d<b|1
a<f e>f d2d:|2 (3agf (3gfe d2d||

